docs/_includes/icons/x-square.svg

<svg viewBox="0 0 16 19" xmlns="http://www.w3.org/2000/svg"><path d="m15.9 1.7v15.8h-15.9v-15.8h15.8zm-6.7 6.8 4.8-5.6h-1.1l-4.2 4.9-3.4-4.9h-3.8l5.1 7.4-5.1 5.9h1.1l4.4-5.2 3.5 5.2h3.9l-5.3-7.7zm-1.5 1.8-.5-.7-4.1-5.9h1.8l3.3 4.7.5.7 4.3 6.1h-1.8l-3.5-5z"/></svg>

<svg xmlns="http://www.w3.org/2000/svg" viewBox="0 0 16 19" class="cf-icon-svg cf-icon-svg__x-square"><path d="M15.9 1.7v15.8H0V1.7h15.8zM9.2 8.5 14 2.9h-1.1L8.7 7.8 5.3 2.9H1.5l5.1 7.4-5.1 5.9h1.1L7 11l3.5 5.2h3.9L9.1 8.5zm-1.5 1.8-.5-.7-4.1-5.9h1.8l3.3 4.7.5.7 4.3 6.1h-1.8l-3.5-5z"/></svg>
